X:19011
T:Seven Stars
T:Moon And Seven Stars, The
R:Jig
C:Trad.
O:England
Z:Pete Coe
M:6/8
L:1/8
Q:1/8=220
K:D
"D"d2A A2F|"G"GAB "D"A2z|"G"Bcd efg|"A"fed cBA|
"D"d2A A2F|"G"GAB "D"A2z|"G"Bcd efg|"A"Adc "D"d3:|
|:"A"e2A A3|efg f3|efg fed|"G"cdB "D"A2A|
"G"BGB "D"A2A|"G"BGB "D"A2A|"G"Bcd efg|"A"Adc"D"d3:|

